!!!Genre:	Dobridyen'
!!!Mode:	Freygish
!!!Listening/dance:	listening
!!!One_Mode:	yes
!!!Orig_tonic: unknown
**kern
*I"P1
*clefG2
*k[b-e-a-]
*G:frey
*M3/4
*>A
4g
=1!|:
4bn
(8qdd/
4cc)
12ddL
12ee-
12ccJ
=2
2dd
8bnL
8gJ
=3
(8ee-L
8cc)
(8dd
8bn)
(8cc
8a-J)
=4
2bn
4g
=5
4bn
(8qdd/
4cc)
12ddL
12ee-
12ccJ
=6
2dd
8bnL
8gJ
=7
(8fL
8c
8f
8a-J)
12ccL
12bn
12a-J
=8
2.g
=9:|!|:
*>B
(8ggL
8aa-)
(8gg
8aa-)
(8gg
8ffJ)
=10
(8ee-L
8ff)
(8ee-
8ff)
(8ee-
8ddJ)
=11
8ccL
8dd
8ee-
8ccJ
12ggL
12ff#X
12ee-J
=12
2dd
4cc
=13
(8bbnL
8ccc)
8ddd
8ccc
8bbn
8aa-J
=14
8ggL
8aa-
8bbn
8aa-
8gg
8ffJ
=15
4ff
(8qgg/
4ff)
(8qgg/
4ff)
=16
2ff
4cc
=17
8ccL
8ff
8een
8ff
8gg
8aa-J
=18
4.bbn
8ggL
8aa-
8ffJ
=19
4gg
4gg
4gg
=20
2.gg
=:|!
*-
